file/goodyear.svg

<svg clip-rule="evenodd" fill-rule="evenodd" stroke-linejoin="round" stroke-miterlimit="1.41421" viewBox="0 0 560 400" xmlns="http://www.w3.org/2000/svg"><g transform="matrix(.932642 0 0 .932642 93.4715 60.057)"><path d="m3 101.8h394v96.5h-394z" fill="#374ca2"/><path d="m126.4 133c-12.9 0-22.3 8.7-22.3 21.5 0 10.3 7.7 15.3 17.5 15.3 14.3 0 21.6-10.5 21.6-21.3 0-10.4-7-15.5-16.8-15.5zm2.4 9.1-4.5 18.7c-.6 2.5-1.4 3.4-3.4 3.4-2.2 0-2.6-1.2-2.1-3.6l4.4-18.2c.7-3 1.4-4 3.6-4 1.8.1 2.5 1.2 2 3.7zm-45-9.1c-12.9 0-22.3 8.7-22.3 21.5 0 10.3 7.7 15.3 17.5 15.3 14.3 0 21.6-10.5 21.6-21.3 0-10.4-7-15.5-16.8-15.5zm2.3 9.1-4.5 18.7c-.6 2.5-1.4 3.4-3.4 3.4-2.2 0-2.6-1.2-2.1-3.6l4.4-18.2c.7-3 1.4-4 3.6-4 1.9.1 2.6 1.2 2 3.7zm111.1-3 8.1-5h.6l-.4 5.1c-.7.1-1.5.1-2.3.1-1.8 0-3.6-.1-6-.2zm5.6 22.9c-2.6-4.7-5-8.9-7-13.5 3.4-2.1 6.7-4.1 10.2-5.5 1 2.5 2.3 4.5 4.3 6.6 2.1-.7 2.5-3.2 4.3-4l3.3 5.2c-5.4 3.4-10.6 6.8-15.1 11.2zm-8.7-23.5c-1.5-1.9-2.9-4-3.7-5.8 5.1-3.3 9.9-5.8 14.4-8.3-.4 1.4-.6 2.9-.6 4.4 0 1.1.1 2.3.6 3.4zm-136.3 13.4-3.9 16.1c-.1.6-.7 1-1.2 1h-19.5c-9.5 0-13.3-7.3-13.3-14.3-.1-14.7 11.1-21.7 24.4-21.7 3.7 0 7.2.8 10 2.6.7.4.7 1.1.4 1.5l-2.3 3.6c-.3.4-.7.7-1.5.1-1.7-1-3.9-1.8-6.2-1.8-2.8 0-5.4.8-5.9 2.8l-4.4 18.8c-.4 1.8 1 2.8 2.9 2.8h1.2c.6 0 .8-.3 1-.7l2.6-10.9c.1-.6.7-1 1.2-1h13.8c.6.1.8.6.7 1.1zm137.2-5.8c.1-1.2.3-2.6.3-3.9 0-.6 0-1-.1-1.5 3.9 0 5.5.4 8.5.7v.4c-2.9 1.5-5.8 3.2-8.7 4.3zm128.9-12.4h-11.8c-.6 0-1.2.1-1.7 1l-20.1 33.3c-.3.4-.1 1 .4 1h5.1c.8 0 1.4-.4 1.7-1l2.3-3.7c.3-.4.7-.7 1.2-.7h10.6c.4 0 .8.1.8.7l.4 3.7c0 .6.4 1 1.1 1h13.8c.6 0 1-.4 1-1l-3.7-33.3c0-.6-.5-1-1.1-1zm-12.9 23.5h-5.8c-.4 0-.6-.1-.3-.7l5.1-8.8c.3-.6.7-.4.7 0l1 8.8c0 .4-.2.7-.7.7zm-138.9-23.4h-19.4c-.7 0-1.1.3-1.2 1l-7.8 33.1c-.1.4.1 1 .7 1h21.5c12.7 0 19.9-11 19.9-21.9-.1-6.6-3.8-13.2-13.7-13.2zm-1.1 8.3-4.5 19.3c-.6 2.2-1.7 2.2-5 2.2-.6 0-.7-.3-.6-1l5.4-22.6c0-.4.4-.7 1-.7 3.5 0 4.2.5 3.7 2.8zm207.4 23.1c0-.8-.7-1-1.4-1h-1.2v3.4h.7v-1.5h.4l.8 1.5h.7l-1-1.5c.6-.1 1-.5 1-.9zm-1.3.4h-.7v-1h.7c.6 0 .6.3.6.4 0 .6-.1.6-.6.6zm-88.5-2.2-1 4.3c-.1.6-.7 1-1.2 1h-26.7c-.6 0-.8-.6-.7-1l7.8-33.1c.1-.7.6-1 1.2-1h26.8v.3c.6 0 .8.6.7 1l-1 4.3c-.1.6-.7 1-1.2 1h-10.6c-.4 0-1.1.6-1.2 1l-1.5 5.8c0 .4.1.6.6.6h6.6c.6 0 .8.6.7 1l-1 4.3c-.1.6-.7 1-1.2 1h-6.5c-.4 0-.8.1-1 .6l-1.8 7.4c-.1.6 0 .7.6.7h10.9c.5-.2.8.4.7.8zm88.4-.7c-1.8 0-3.2 1.4-3.2 3.2s1.4 3.2 3.2 3.2 3.2-1.4 3.2-3.2-1.4-3.2-3.2-3.2zm0 5.7c-1.4 0-2.5-1.1-2.5-2.5s1.1-2.5 2.5-2.5 2.5 1.1 2.5 2.5-1.1 2.5-2.5 2.5zm-8.2-12.1c5.8-3.4 6.9-9.8 6.9-12.8 0-5.1-3.2-9.6-12.7-9.6l-22.1.1c-.7 0-1.1.3-1.2 1l-7.8 33.1c-.1.4.1 1 .7 1h14.2c.6 0 1.1-.4 1.2-1l2.1-8.5c.1-.7.4-1 1-1h.6c.6 0 .6.4.7 1l1.8 8.5c.1.7.7 1 1.2 1h14.7c.6 0 .8-.6.7-1.1l-2.3-10.5c-.4-.8 0-1.1.3-1.2zm-9.7-14.2-2.1 8.8c-.6 2.2-1.7 2.2-5 2.2-.6 0-.7-.3-.6-1l2.9-12.1c0-.4.4-.7 1-.7 3.7 0 4.4.5 3.8 2.8zm-139.4 12.1c-14.6 7.2-22.3 23.5-37.1 28.7-.6-.7-.7-1.2-1-1.9 14.4-5.1 21.7-21.6 37.1-28.6.4.3 1 1 1 1.8zm-27.8 18.6c-3.9 3.6-8.9 6.6-11 6.6-.7 0-1-.6-1-1.1 0-4.1 4.5-6.2 6.2-9.5 1.7-3.2 2.2-6.3 3.4-9.5s2.3-7.2 4.7-9.9c2.2 4.3 5 9.5 7 13.9-2.6 2.6-5.9 6.2-9.3 9.5zm37.7-42.8c0-.6-.7-.3-1.1-.7 1.8-.8 5.1-.6 5.2-2.6l-2.8-1.1v-.4c3 .1 6.2.4 9.4.4 6.2 0 14.9-1.8 14.9-8.1l-.1-.4c-5.1 1-10.9 1.5-16.4 1.5-6.2 0-12.1-.7-18.2-.7s-14.6 2.5-14.6 10.5c0 2.2 1 4.4 2.1 6.1-.3 1.2-.4 2.5-.4 3.6 0 2.9.6 7.7 3.6 8.3 1.5-1.9 2.2-4.1 3.2-6.3.7.3 1.4 1.5 2.3 1.5 1.1-1.1.8-3 1.4-4.4.7.4 1.1 1 1.8 1 1.2 0 1.5-4.1 1.5-5.1v-1.2l.4-.4c1.1.6 2.2.7 3.3.7 1.7 0 3.3-.4 4.5-1.8zm-19.4.7-.3-.4 2.2.1.6 2.8c-1.3-.5-1-2.4-2.5-2.5zm11.4-7.7c-.1-.1-.3-.1-.4-.1-1.1 0-.8 1.8-2.5 1.8-1.1 0-2.3.1-3 1.1-.3.1-.7.1-1 .1-.7 0-1.2-.1-1.8-.4 1.1-.1 2.5-1 2.9-2.2 1.1-.1 2.5 0 3.3-.8.3-.6.7-.8 1.1-.8.7 0 1.5.4 2.2.4.3 0 .6 0 .8-.1 0 .3-.8.7-1.6 1zm42.4 11.8-15.8 19.1-3.3 14c-.1.6-.7 1-1.2 1h-14.2c-.6 0-.8-.6-.7-1l3.4-14.2-5.9-19c-.1-.7 0-1 .7-1h14.6c.7 0 1.1.4 1.2 1l3.4 10.9 8.8-10.9c.6-.6 1.1-1 1.8-1h7c.6.1.7.6.2 1.1z" fill="#fd0" fill-rule="nonzero"/></g></svg>

<?xml version="1.0" encoding="UTF-8" standalone="no"?>
<!DOCTYPE svg PUBLIC "-//W3C//DTD SVG 1.1//EN" "http://www.w3.org/Graphics/SVG/1.1/DTD/svg11.dtd">
<svg width="100%" height="100%" viewBox="0 0 560 400" version="1.1" xmlns="http://www.w3.org/2000/svg" xmlns:xlink="http://www.w3.org/1999/xlink" xml:space="preserve" xmlns:serif="http://www.serif.com/" style="fill-rule:evenodd;clip-rule:evenodd;stroke-linejoin:round;stroke-miterlimit:1.41421;">
    <g transform="matrix(0.932642,0,0,0.932642,93.4715,60.057)">
        <rect id="blue" x="3" y="101.8" width="394" height="96.5" style="fill:rgb(55,76,162);"/>
        <path id="yellow" d="M126.4,133C113.5,133 104.1,141.7 104.1,154.5C104.1,164.8 111.8,169.8 121.6,169.8C135.9,169.8 143.2,159.3 143.2,148.5C143.2,138.1 136.2,133 126.4,133ZM128.8,142.1L124.3,160.8C123.7,163.3 122.9,164.2 120.9,164.2C118.7,164.2 118.3,163 118.8,160.6L123.2,142.4C123.9,139.4 124.6,138.4 126.8,138.4C128.6,138.5 129.3,139.6 128.8,142.1ZM83.8,133C70.9,133 61.5,141.7 61.5,154.5C61.5,164.8 69.2,169.8 79,169.8C93.3,169.8 100.6,159.3 100.6,148.5C100.6,138.1 93.6,133 83.8,133ZM86.1,142.1L81.6,160.8C81,163.3 80.2,164.2 78.2,164.2C76,164.2 75.6,163 76.1,160.6L80.5,142.4C81.2,139.4 81.9,138.4 84.1,138.4C86,138.5 86.7,139.6 86.1,142.1ZM197.2,139.1L205.3,134.1L205.9,134.1L205.5,139.2C204.8,139.3 204,139.3 203.2,139.3C201.4,139.3 199.6,139.2 197.2,139.1ZM202.8,162C200.2,157.3 197.8,153.1 195.8,148.5C199.2,146.4 202.5,144.4 206,143C207,145.5 208.3,147.5 210.3,149.6C212.4,148.9 212.8,146.4 214.6,145.6L217.9,150.8C212.5,154.2 207.3,157.6 202.8,162ZM194.1,138.5C192.6,136.6 191.2,134.5 190.4,132.7C195.5,129.4 200.3,126.9 204.8,124.4C204.4,125.8 204.2,127.3 204.2,128.8C204.2,129.9 204.3,131.1 204.8,132.2L194.1,138.5ZM57.8,151.9L53.9,168C53.8,168.6 53.2,169 52.7,169L33.2,169C23.7,169 19.9,161.7 19.9,154.7C19.8,140 31,133 44.3,133C48,133 51.5,133.8 54.3,135.6C55,136 55,136.7 54.7,137.1L52.4,140.7C52.1,141.1 51.7,141.4 50.9,140.8C49.2,139.8 47,139 44.7,139C41.9,139 39.3,139.8 38.8,141.8L34.4,160.6C34,162.4 35.4,163.4 37.3,163.4L38.5,163.4C39.1,163.4 39.3,163.1 39.5,162.7L42.1,151.8C42.2,151.2 42.8,150.8 43.3,150.8L57.1,150.8C57.7,150.9 57.9,151.4 57.8,151.9ZM195,146.1C195.1,144.9 195.3,143.5 195.3,142.2C195.3,141.6 195.3,141.2 195.2,140.7C199.1,140.7 200.7,141.1 203.7,141.4L203.7,141.8C200.8,143.3 197.9,145 195,146.1ZM323.9,133.7L312.1,133.7C311.5,133.7 310.9,133.8 310.4,134.7L290.3,168C290,168.4 290.2,169 290.7,169L295.8,169C296.6,169 297.2,168.6 297.5,168L299.8,164.3C300.1,163.9 300.5,163.6 301,163.6L311.6,163.6C312,163.6 312.4,163.7 312.4,164.3L312.8,168C312.8,168.6 313.2,169 313.9,169L327.7,169C328.3,169 328.7,168.6 328.7,168L325,134.7C325,134.1 324.5,133.7 323.9,133.7ZM311,157.2L305.2,157.2C304.8,157.2 304.6,157.1 304.9,156.5L310,147.7C310.3,147.1 310.7,147.3 310.7,147.7L311.7,156.5C311.7,156.9 311.5,157.2 311,157.2ZM172.1,133.8L152.7,133.8C152,133.8 151.6,134.1 151.5,134.8L143.7,167.9C143.6,168.3 143.8,168.9 144.4,168.9L165.9,168.9C178.6,168.9 185.8,157.9 185.8,147C185.7,140.4 182,133.8 172.1,133.8ZM171,142.1L166.5,161.4C165.9,163.6 164.8,163.6 161.5,163.6C160.9,163.6 160.8,163.3 160.9,162.6L166.3,140C166.3,139.6 166.7,139.3 167.3,139.3C170.8,139.3 171.5,139.8 171,142.1ZM378.4,165.2C378.4,164.4 377.7,164.2 377,164.2L375.8,164.2L375.8,167.6L376.5,167.6L376.5,166.1L376.9,166.1L377.7,167.6L378.4,167.6L377.4,166.1C378,166 378.4,165.6 378.4,165.2ZM377.1,165.6L376.4,165.6L376.4,164.6L377.1,164.6C377.7,164.6 377.7,164.9 377.7,165C377.7,165.6 377.6,165.6 377.1,165.6ZM288.6,163.4L287.6,167.7C287.5,168.3 286.9,168.7 286.4,168.7L259.7,168.7C259.1,168.7 258.9,168.1 259,167.7L266.8,134.6C266.9,133.9 267.4,133.6 268,133.6L294.8,133.6L294.8,133.9C295.4,133.9 295.6,134.5 295.5,134.9L294.5,139.2C294.4,139.8 293.8,140.2 293.3,140.2L282.7,140.2C282.3,140.2 281.6,140.8 281.5,141.2L280,147C280,147.4 280.1,147.6 280.6,147.6L287.2,147.6C287.8,147.6 288,148.2 287.9,148.6L286.9,152.9C286.8,153.5 286.2,153.9 285.7,153.9L279.2,153.9C278.8,153.9 278.4,154 278.2,154.5L276.4,161.9C276.3,162.5 276.4,162.6 277,162.6L287.9,162.6C288.4,162.4 288.7,163 288.6,163.4ZM377,162.7C375.2,162.7 373.8,164.1 373.8,165.9C373.8,167.7 375.2,169.1 377,169.1C378.8,169.1 380.2,167.7 380.2,165.9C380.2,164.1 378.8,162.7 377,162.7ZM377,168.4C375.6,168.4 374.5,167.3 374.5,165.9C374.5,164.5 375.6,163.4 377,163.4C378.4,163.4 379.5,164.5 379.5,165.9C379.5,167.3 378.4,168.4 377,168.4ZM368.8,156.3C374.6,152.9 375.7,146.5 375.7,143.5C375.7,138.4 372.5,133.9 363,133.9L340.9,134C340.2,134 339.8,134.3 339.7,135L331.9,168.1C331.8,168.5 332,169.1 332.6,169.1L346.8,169.1C347.4,169.1 347.9,168.7 348,168.1L350.1,159.6C350.2,158.9 350.5,158.6 351.1,158.6L351.7,158.6C352.3,158.6 352.3,159 352.4,159.6L354.2,168.1C354.3,168.8 354.9,169.1 355.4,169.1L370.1,169.1C370.7,169.1 370.9,168.5 370.8,168L368.5,157.5C368.1,156.7 368.5,156.4 368.8,156.3ZM359.1,142.1L357,150.9C356.4,153.1 355.3,153.1 352,153.1C351.4,153.1 351.3,152.8 351.4,152.1L354.3,140C354.3,139.6 354.7,139.3 355.3,139.3C359,139.3 359.7,139.8 359.1,142.1ZM219.7,154.2C205.1,161.4 197.4,177.7 182.6,182.9C182,182.2 181.9,181.7 181.6,181C196,175.9 203.3,159.4 218.7,152.4C219.1,152.7 219.7,153.4 219.7,154.2ZM191.9,172.8C188,176.4 183,179.4 180.9,179.4C180.2,179.4 179.9,178.8 179.9,178.3C179.9,174.2 184.4,172.1 186.1,168.8C187.8,165.6 188.3,162.5 189.5,159.3C190.7,156.1 191.8,152.1 194.2,149.4C196.4,153.7 199.2,158.9 201.2,163.3C198.6,165.9 195.3,169.5 191.9,172.8ZM229.6,130C229.6,129.4 228.9,129.7 228.5,129.3C230.3,128.5 233.6,128.7 233.7,126.7L230.9,125.6L230.9,125.2C233.9,125.3 237.1,125.6 240.3,125.6C246.5,125.6 255.2,123.8 255.2,117.5L255.1,117.1C250,118.1 244.2,118.6 238.7,118.6C232.5,118.6 226.6,117.9 220.5,117.9C214.4,117.9 205.9,120.4 205.9,128.4C205.9,130.6 206.9,132.8 208,134.5C207.7,135.7 207.6,137 207.6,138.1C207.6,141 208.2,145.8 211.2,146.4C212.7,144.5 213.4,142.3 214.4,140.1C215.1,140.4 215.8,141.6 216.7,141.6C217.8,140.5 217.5,138.6 218.1,137.2C218.8,137.6 219.2,138.2 219.9,138.2C221.1,138.2 221.4,134.1 221.4,133.1L221.4,131.9L221.8,131.5C222.9,132.1 224,132.2 225.1,132.2C226.8,132.2 228.4,131.8 229.6,130.4L229.6,130L229.6,130ZM210.2,130.7L209.9,130.3L212.1,130.4L212.7,133.2C211.4,132.7 211.7,130.8 210.2,130.7ZM221.6,123C221.5,122.9 221.3,122.9 221.2,122.9C220.1,122.9 220.4,124.7 218.7,124.7C217.6,124.7 216.4,124.8 215.7,125.8C215.4,125.9 215,125.9 214.7,125.9C214,125.9 213.5,125.8 212.9,125.5C214,125.4 215.4,124.5 215.8,123.3C216.9,123.2 218.3,123.3 219.1,122.5C219.4,121.9 219.8,121.7 220.2,121.7C220.9,121.7 221.7,122.1 222.4,122.1C222.7,122.1 223,122.1 223.2,122C223.2,122.3 222.4,122.7 221.6,123ZM264,134.8L248.2,153.9L244.9,167.9C244.8,168.5 244.2,168.9 243.7,168.9L229.5,168.9C228.9,168.9 228.7,168.3 228.8,167.9L232.2,153.7L226.3,134.7C226.2,134 226.3,133.7 227,133.7L241.6,133.7C242.3,133.7 242.7,134.1 242.8,134.7L246.2,145.6L255,134.7C255.6,134.1 256.1,133.7 256.8,133.7L263.8,133.7C264.4,133.8 264.5,134.3 264,134.8Z" style="fill:rgb(255,221,0);fill-rule:nonzero;"/>
    </g>
</svg>
